X:1
T:Creator Spirit, by Whose Aid
T:Text: Latin hymn, Veni Creator Spiritus, 9th cent.; para. John Dryden, 1693 Tune: John B. Dykes, 1861
T:88 88 88 MELITA www.hymnary.org/text/creator_spirit_by_whose_aid
T:Creator Spirit, by Whose Aid
T:This hymn is in the public domain. You may freely use this score for personal and congregational worship. If you reproduce the score, please credit Hymnary.org as the source. 
T:This hymn is in the public domain. You may freely use this score for personal and congregational worship. If you reproduce the score, please credit Hymnary.org as the source. 
Z:This hymn is in the public domain. You may freely use this score for personal and congregational worship. If you reproduce the score, please credit Hymnary.org as the source.
%%score ( 1 2 ) ( 3 4 )
L:1/8
M:4/4
K:C
V:1 treble nm="SOPRANO ALTO" snm="S. A."
V:2 treble 
V:3 bass nm="TENOR BASS" snm="T. B."
V:4 bass 
V:1
"^1""^2""^3" C2 | E3 E G2 G2 | A2 A2 G2 G2 | c2 d2 B2 G2 | G2 ^F2 G2 D2 | =F3 F E2 E2 | G3 G ^F2 | %7
w: Cre-|a- tor Spir- it,|by whose aid the|world's foun- da- tions|first were laid, come,|vis- it ev- ery|pi- ous mind;|
w: O|source of un- cre-|at- ed light, the|Fa- ther's prom- ised|Pa- ra- clete, thrice|ho- ly fount, thrice|ho- ly fire,|
w: Plen-|teous of grace, de-|scend from high, rich|in thy seven- fold|en- er- gy; make|us e- ter- nal|truths re- ceive|
 B2 | G2 ^F2 E2 A2 | G2 ^F2 E2 E2 | E3 E F2 F2 |1 ^F3 F G2 G2 | G2 A2 G2 E2 | D3 C C2 x2 |] %14
w: come,|pour thy joys on|hu- man- kind; from|sin and sor- row|set us free and|make thy tem- ples|wor- thy thee.|
w: our|hearts with heav- enly|love in- spire; come|and thy sa- cred|unc- tion bring to|sanc- ti- fy us|while we sing.|
w: and|prac- tice all that|we be- lieve; give|us thy- self that|we may see the|Fa- ther and the|Son by thee.|
V:2
 C2 | C3 C E2 E2 | F2 F2 E2 G2 | G3 ^F G3 E | D2 D2 D2 B,2 | D3 D C2 C2 | E3 E D2 | ^F2 | %8
 E3 ^D E3 ^F | E2 ^D2 E2 B,2 | _B,3 B, A,2 C2 |1 C3 C B,2 =F2 | E2 D2 E2 C2 | B,3 C C2 x2 |] %14
V:3
 E,2 | G,3 G, C3 B, | A,B,CD E2 D2 | C2 A,2 B,2 DC | A,2 A,2 B,2 G,2 | G,3 G, G,2 G,2 | %6
 A,3 A, A,2 | B,2 | B,2 A,2 B,2 C2 | B,2 B,2 G,2 G,2 | G,3 G, F,2 A,2 |1 A,3 A, G,2 D2 | %12
 C2 C2 C2 G,2 | =F,3 E, E,2 x2 |] %14
V:4
 C,2 | C,3 C, C,2 C,2 | F,G, A,B, C2 B,2 | A,2 D,2 G,2 B,,C, | D,2 D,2 G,2 G,2 | B,,3 B,, C,2 C,2 | %6
 ^C,3 C, D,2 | ^D,2 | E,2 ^F,2 G,2 A,2 | B,2 B,2 E,2 E,2 | C,3 C, F,2 F,2 |1 D,3 D, G,2 B,,2 | %12
 C,2 ^F,,2 G,,2 G,,2 | G,,3 C, C,2 x2 |] %14

